X: 74
T: Da na ba la
%%abc-version 2.0
%%abcx-abcm2ps-target-version 5.9.1 (29 Sep 2008)
%%abc-creator hum2abc beta
%%abcx-conversion-date 2013/10/02 07:44:27
%%abc-edited-by Helmut Schaffrath
%%humdrum-veritas 649152746
%%humdrum-veritas-data 1301629423
%%continueall 1
%%barnumbers 0
L: 1/8
M: 2/4
K: F
A c c f [I:setbarnb 1]| 
d c A G | 
A c c d/ d/ | 
F> G D C | 
c4- | 
c4 | 
A c c f | 
d c A G | 
A c c d | 
c> G A c | 
G4- | 
G4 | 
G> A c c | 
c d D C | 
A> c G F | 
F DC2 | 
G3d | 
c> d c A | 
G G A G | 
F DC2 | 
A A c c | 
G> FD2 | 
C4- | 
C4 |]  



